frontend/src/assets/test.svg

<svg width="55" height="54" viewBox="0 0 55 54" fill="none" xmlns="http://www.w3.org/2000/svg">
<path d="M9.08602 35.4604C4.06795 30.5643 4.06795 22.6262 9.08603 17.7302L18.1721 8.86508C23.1901 3.96902 31.326 3.96902 36.3441 8.86508L45.4301 17.7302C50.4482 22.6262 50.4482 30.5643 45.4301 35.4604L36.3441 44.3255C31.326 49.2215 23.1901 49.2215 18.1721 44.3255L9.08602 35.4604Z" fill="#FECFD0"/>
<path d="M22.3333 20.7619C22.0239 20.7619 21.7272 20.8849 21.5084 21.1037C21.2896 21.3224 21.1667 21.6192 21.1667 21.9286V26.5953H22.3333V24.2619H23.5V26.5953H24.6667V21.9286C24.6667 21.6192 24.5438 21.3224 24.325 21.1037C24.1062 20.8849 23.8094 20.7619 23.5 20.7619H22.3333ZM22.3333 21.9286H23.5V23.0953H22.3333M32.8333 28.6369V27.7619C32.8333 27.4525 32.7104 27.1558 32.4916 26.937C32.2728 26.7182 31.9761 26.5953 31.6667 26.5953H29.3333V32.4286H31.6667C31.9761 32.4286 32.2728 32.3057 32.4916 32.0869C32.7104 31.8681 32.8333 31.5714 32.8333 31.2619V30.3869C32.8274 30.1567 32.7333 29.9376 32.5705 29.7748C32.4077 29.6119 32.1885 29.5178 31.9583 29.5119C32.1885 29.506 32.4077 29.412 32.5705 29.2491C32.7333 29.0863 32.8274 28.8671 32.8333 28.6369ZM31.6667 31.2619H30.5V30.0953H31.6667V31.2619ZM31.6667 28.9286H30.5V27.7619H31.6667M23.3775 32.2011L22.4558 31.4894L30.6225 20.9894L31.5442 21.7011L23.3775 32.2011Z" fill="#01244C"/>
</svg>

<svg xmlns="http://www.w3.org/2000/svg" width="55" height="54" fill="none" xmlns:v="https://vecta.io/nano"><path d="M9.086 35.46a12.32 12.32 0 0 1 0-17.73l9.086-8.865c5.018-4.896 13.154-4.896 18.172 0l9.086 8.865a12.32 12.32 0 0 1 0 17.73l-9.086 8.865c-5.018 4.896-13.154 4.896-18.172 0L9.086 35.46z" fill="#fecfd0"/><path d="M22.333 20.762c-.309 0-.606.123-.825.342s-.342.515-.342.825v4.667h1.167v-2.333H23.5v2.333h1.167v-4.667c0-.309-.123-.606-.342-.825s-.516-.342-.825-.342h-1.167zm0 1.167H23.5v1.167h-1.167m10.5 5.542v-.875c0-.309-.123-.606-.342-.825s-.515-.342-.825-.342h-2.333v5.833h2.333c.309 0 .606-.123.825-.342s.342-.515.342-.825v-.875a.9.9 0 0 0-.875-.875.9.9 0 0 0 .875-.875zm-1.167 2.625H30.5v-1.167h1.167v1.167zm0-2.333H30.5v-1.167h1.167m-8.289 4.439l-.922-.712 8.167-10.5.922.712-8.167 10.5z" fill="#01244c"/></svg>
